X:1
T: Kildrummie Lodge
C:Alexander Walker
R:Reel
Q: 232
K:Bb
M:4/4
L:1/8
|:F|B2 Bd cB GB|FB DB DC CA|B2 Bd cB FD|Eg fe dB BF|
B2 Bd cB GB|FB DB DC CA|B2 Bd cB FD|Eg fe dB Ba|
b2 gb fg df|ed cB cC CE|bf gb Bc dc|BG FE DB, B,a|
b2 gb fg df|ed cB cC CE|DB, DF GE GB|AF Gc dB B:|
